X:343
T: DORT WO DIE KLAREN BAECHLEIN RINNEN
N: E1496
O: Europa, Mitteleuropa, Deutschland, Ober - Hessen; Nassau; Elsass
R: Staende - Lied, Hirten -,  Schaefer - Lied
M: 4/4
L: 1/16
K: G
D4 | G6D2B,2D2G3F | F4E4z4
A2B2 | c6B2A2D2B3A | G8z4
D4 | G6D2B,2D2G3F | F4E4z4
A2B2 | c6B2A2D2B3A | G8z4
B4 | A6B2A2A2G2G2 | F2A2d4z4
A2d2 | ^c6B2A2A2G2G2 | F4c4B4
A4 | G6D2B,2D2G3F | F4E4z4
A2B2 | c6B2A2D2B3A | G8z4

